<?xml version="1.0" encoding="UTF-8"?>
<map version="1.10" tiledversion="1.12.1" orientation="orthogonal" renderorder="right-down" width="24" height="18" tilewidth="32" tileheight="32" infinite="0" nextlayerid="6" nextobjectid="3">
 <tileset firstgid="1" name="tileset_lab" tilewidth="32" tileheight="32" tilecount="128" columns="8">
  <image source="tileset_lab.png" width="256" height="512"/>
 </tileset>
 <layer id="1" name="Background" width="24" height="18">
  <data encoding="csv">
6,6,6,6,6,6,6,6,6,6,6,6,6,6,6,6,6,6,6,6,6,6,6,6,
6,6,6,6,6,6,6,6,6,6,6,6,6,6,6,6,6,6,6,6,6,6,6,6,
6,6,6,6,6,6,1,1,1,1,1,1,1,1,1,1,1,1,6,6,6,6,6,6,
6,6,6,6,1,3,1,1,1,1,1,1,1,1,1,1,1,1,1,1,6,6,6,6,
6,6,1,1,1,1,1,1,1,1,1,1,1,1,1,1,1,1,1,1,1,1,6,6,
6,6,1,1,1,1,1,1,5,5,5,5,5,5,5,5,1,1,1,1,1,1,6,6,
6,6,1,1,1,1,1,1,5,2,2,2,2,2,2,5,1,1,1,1,1,1,6,6,
6,6,1,1,1,1,1,1,5,2,2,2,2,2,2,5,1,1,1,1,1,1,6,6,
6,6,1,1,1,1,1,1,5,2,2,2,2,2,2,5,1,1,1,1,1,1,6,6,
6,6,1,1,1,1,1,1,5,2,2,2,2,2,2,5,1,1,1,1,1,1,6,6,
6,6,1,1,1,1,1,1,5,2,2,2,2,2,2,5,1,1,1,1,1,1,6,6,
6,6,1,1,1,1,1,1,5,2,2,2,2,2,2,5,1,1,1,1,1,1,6,6,
6,6,1,1,1,1,1,1,5,5,5,5,5,5,5,5,1,1,1,1,1,1,6,6,
6,6,1,1,1,1,1,1,1,1,1,1,1,1,1,1,1,1,1,1,1,1,6,6,
6,6,6,6,1,1,1,1,1,1,1,1,1,1,1,1,3,1,1,1,6,6,6,6,
6,6,6,6,6,6,1,1,1,1,1,1,1,1,1,1,1,1,6,6,6,6,6,6,
6,6,6,6,6,6,6,6,6,6,6,6,6,6,6,6,6,6,6,6,6,6,6,6,
6,6,6,6,6,6,6,6,6,6,6,6,6,6,6,6,6,6,6,6,6,6,6,6
</data>
 </layer>
 <layer id="5" name="Dekorasi Non-Solid" width="24" height="18">
  <data encoding="csv">
0,0,0,0,0,0,0,0,0,0,0,0,0,0,0,0,0,0,0,0,0,0,0,0,
0,0,0,0,0,0,0,0,0,0,0,0,0,0,0,0,0,0,0,0,0,0,0,0,
0,0,0,0,0,0,0,0,0,0,0,0,0,0,0,0,3221225508,0,0,0,0,0,0,0,
0,0,0,0,0,0,0,3221225508,0,0,0,0,0,0,0,0,0,0,2684354596,0,0,0,0,0,
0,0,0,0,0,0,0,0,0,0,0,3221225508,0,0,0,0,0,0,0,0,0,0,0,0,
0,0,0,0,0,0,0,0,0,0,0,0,0,0,0,0,0,0,0,0,0,0,0,0,
0,0,0,0,0,0,0,0,0,0,0,0,0,0,0,0,0,0,0,0,0,0,0,0,
0,0,0,0,0,0,0,0,0,0,0,0,0,0,0,0,0,36,0,0,0,0,0,0,
0,0,0,0,0,0,0,0,0,0,0,2684354596,0,0,36,0,0,0,3221225508,0,0,0,0,0,
0,0,0,36,0,3221225508,0,0,0,0,0,0,0,0,0,0,36,0,0,0,0,0,0,0,
0,0,0,0,0,0,3221225508,0,0,0,0,0,0,0,0,0,0,0,0,0,0,0,0,0,
0,0,0,0,0,0,0,0,0,0,0,0,0,0,0,0,0,1610612772,0,0,0,0,0,0,
0,0,0,0,0,0,0,0,0,0,0,0,0,0,0,0,0,0,0,0,0,0,0,0,
0,0,0,0,0,0,0,0,0,0,0,0,0,0,0,0,0,0,0,0,0,0,0,0,
0,0,0,0,0,0,0,0,0,0,0,0,36,0,0,0,0,1610612772,0,0,0,0,0,0,
0,0,0,0,0,0,0,0,0,0,0,0,0,0,0,0,0,0,0,0,0,0,0,0,
0,0,0,0,0,0,0,0,0,0,0,0,0,0,0,0,0,0,0,0,0,0,0,0,
0,0,0,0,0,0,0,0,0,0,0,0,0,0,0,0,0,0,0,0,0,0,0,0
</data>
 </layer>
 <layer id="2" name="Foreground" width="24" height="18">
  <data encoding="csv">
105,105,105,105,105,105,105,105,105,105,105,105,105,105,105,105,105,105,105,105,105,105,105,105,
105,105,105,105,105,2147483662,9,9,9,9,79,41,41,79,9,9,9,9,14,105,105,105,105,105,
105,105,105,13,9,9,0,0,0,0,0,0,0,0,0,0,0,0,9,9,14,105,105,105,
105,13,9,79,0,0,0,0,0,0,0,0,0,0,0,0,0,0,0,0,79,9,14,105,
105,10,0,0,0,0,0,83,84,85,0,0,0,0,0,0,0,0,0,0,0,0,11,105,
105,10,0,0,0,34,0,0,0,0,0,0,0,0,0,0,0,0,34,0,0,0,11,105,
105,10,0,0,0,0,0,0,0,0,0,0,0,0,0,0,0,0,0,0,0,0,11,105,
105,10,0,0,0,0,23,0,0,0,58,0,0,60,0,0,0,0,0,86,0,0,11,105,
105,10,0,0,0,0,0,0,0,0,0,0,0,0,0,0,0,0,0,0,0,0,11,105,
105,10,0,0,0,0,0,0,0,0,0,0,0,0,0,0,0,0,0,0,0,0,11,105,
105,10,0,0,86,0,0,0,0,0,57,0,0,62,0,0,0,23,0,0,0,0,11,105,
105,10,0,0,0,0,0,0,0,0,0,0,0,0,0,0,0,0,0,0,0,0,11,105,
105,10,0,0,0,34,0,0,0,0,0,0,0,0,0,0,0,0,34,0,0,0,11,105,
105,10,0,0,0,0,0,0,0,0,0,0,0,0,83,84,85,0,0,0,0,0,11,105,
105,15,12,12,0,0,0,0,0,0,0,0,0,0,0,0,0,0,0,0,12,12,16,105,
105,105,105,15,12,12,0,0,0,0,0,0,0,0,0,0,0,0,12,12,16,105,105,105,
105,105,105,105,105,15,12,12,12,12,12,1073741865,1073741865,12,12,12,12,12,16,105,105,105,105,105,
105,105,105,105,105,105,105,105,105,105,105,105,105,105,105,105,105,105,105,105,105,105,105,105
</data>
 </layer>
 <layer id="3" name="Interact Object" width="24" height="18">
  <data encoding="csv">
0,0,0,0,0,0,0,0,0,0,0,0,0,0,0,0,0,0,0,0,0,0,0,0,
0,0,0,0,0,0,0,0,0,0,0,0,0,0,0,0,0,0,0,0,0,0,0,0,
0,0,0,0,0,0,0,0,0,0,0,0,0,0,0,0,0,0,0,0,0,0,0,0,
0,0,0,0,0,0,0,0,0,0,0,0,0,0,0,0,0,0,0,0,0,0,0,0,
0,0,0,0,0,0,0,0,0,0,0,0,0,0,0,0,0,0,0,0,0,0,0,0,
0,0,0,0,0,0,0,0,0,0,0,0,0,0,0,0,0,0,0,0,0,0,0,0,
0,0,0,0,0,0,0,0,0,0,0,0,0,0,0,0,0,0,0,0,0,0,0,0,
0,0,0,0,0,0,0,0,0,0,0,0,0,0,0,0,0,0,0,0,0,0,0,0,
0,0,0,0,0,0,0,0,0,0,0,0,0,0,0,0,0,0,0,0,0,0,0,0,
0,0,0,0,0,0,0,0,0,0,0,0,0,0,0,0,0,0,0,0,0,0,0,0,
0,0,0,0,0,0,0,0,0,0,0,0,0,0,0,0,0,0,0,0,0,0,0,0,
0,0,0,0,0,0,0,0,0,0,0,0,0,0,0,0,0,0,0,0,0,0,0,0,
0,0,0,0,0,0,0,0,0,0,0,0,0,0,0,0,0,0,0,0,0,0,0,0,
0,0,0,0,0,0,0,0,0,0,0,0,0,0,0,0,0,0,0,0,0,0,0,0,
0,0,0,0,0,0,0,0,0,0,0,0,0,0,0,0,0,0,0,0,0,0,0,0,
0,0,0,0,0,0,0,0,0,0,0,0,0,0,0,0,0,0,0,0,0,0,0,0,
0,0,0,0,0,0,0,0,0,0,0,0,0,0,0,0,0,0,0,0,0,0,0,0,
0,0,0,0,0,0,0,0,0,0,0,0,0,0,0,0,0,0,0,0,0,0,0,0
</data>
 </layer>
 <objectgroup id="4" name="Spawn">
  <object id="1" name="spawn_researcher" x="368.667" y="86.6667">
   <properties>
    <property name="kind" value="playerSpawn"/>
    <property name="role" value="RESEARCHER"/>
   </properties>
   <point/>
  </object>
  <object id="2" name="spawn_monster" x="366.667" y="474">
   <properties>
    <property name="kind" value="playerSpawn"/>
    <property name="role" value="MONSTER"/>
   </properties>
   <point/>
  </object>
 </objectgroup>
</map>
